X: 196
M: 6/8
L: 1/8
K: D
|:\
d3 DFA | dfa ecA |\
d3 DFA | g2f e3 :|\
|:\
ded ecA | fgf afA |
ded ecA | gfe d3 :|\
|:\

